X:160
T:Ashplant, The
R:reel
Z:transcribed by Dave Marshall
M:C|
K:D
|: A~F3 BFAF | DEFA B3d | e~B3 gefe | dfed BcdB |
A~F3 BFAF | DEFA B3d | egfg efdB | AFEF D4 :|
|: d3e f3g | afbf afdf | e~B3 g~B3 | fedf edBd |
A~F3 ABdf | afbf afdf | egfg efdB | AFEF D4 :|
